X:6848
T:Hart's Scotch Set,#1. JNu.51
T:Blow The Wind Southerly,aka. JNu.51
M:6/8
L:1/8
Q:90
S:James Nuttall MS,c1830,Rossendale,East Lancs.
R:Quadrille
O:England
A:East Lancashire
N:
Z:vmp.Manchester Morris Men
K:C
c/d/|e>dc G<EG|A<cA GEc/d/|e>dc G<EG|A<cB c2:|!
g|ecg dBg|c>Bc BGg|ecg dBg|^fe^f g2^g|!
a^ga =g^f=g|=f>ef e2c/d/|e>dc Aca|agB"segno" c2||!
K:F
A|A2_B c_BA|d2e fed|cA_B c_BA|AGG G2A|!
A2_B c_BA|d2e fed|cfa gfg|f3"DC" f2|]
